dist/icons/svgs/house-group-outline.svg

<svg xmlns="http://www.w3.org/2000/svg" width="24" height="24" fill="currentcolor" class="icon-house-group-outline" viewBox="0 0 24 24">
  <path d="M7.69769 7.37664L14.3972 13.4075C14.651 13.6498 14.6764 14.0537 14.4734 14.3229C14.245 14.5922 13.8643 14.6191 13.6105 14.4037L13.0015 13.8383V18.8461C13.0015 20.0577 12.0879 21 10.9713 21H3.66275C2.52078 21 1.63259 20.0577 1.63259 18.8461V13.8383L0.998162 14.4037C0.744392 14.6191 0.363737 14.5922 0.135344 14.3229C-0.067672 14.0537 -0.042295 13.6498 0.211475 13.4075L6.911 7.37664C7.1394 7.18818 7.4693 7.18818 7.69769 7.37664ZM2.85068 18.8461C2.85068 19.3307 3.20596 19.7077 3.66275 19.7077H4.88084V15.6153C4.88084 15.023 5.31225 14.5383 5.89592 14.5383H8.73815C9.29644 14.5383 9.75323 15.023 9.75323 15.6153V19.7077H10.9713C11.4027 19.7077 11.7834 19.3307 11.7834 18.8461V12.7344L7.31704 8.72283L2.85068 12.7344V18.8461ZM6.09894 19.7077H8.53513V15.8307H6.09894V19.7077Z"/>
  <path fill-rule="evenodd" d="M23.7885 9.17224L17.089 3.14135C16.8606 2.95288 16.5307 2.95288 16.3023 3.14135L9.64757 9.13192L10.5953 9.98502L11.0239 9.60302V10.3709L12.242 11.4674V8.49915L16.7083 4.48753L21.1747 8.49915V14.6108C21.1747 15.0954 20.794 15.4724 20.3626 15.4724H19.1445V11.38C19.1445 10.7877 18.6877 10.303 18.1295 10.303H15.2872C14.7036 10.303 14.2721 10.7877 14.2721 11.38V13.2949L14.3972 13.4075C14.651 13.6498 14.6764 14.0537 14.4734 14.3229C14.4147 14.392 14.3461 14.4452 14.2721 14.4823V15.4724H13.0541C13.0364 15.4724 13.0188 15.4718 13.0015 15.4707V16.764C13.0189 16.7645 13.0365 16.7647 13.0541 16.7647H20.3626C21.4792 16.7647 22.3928 15.8224 22.3928 14.6108V9.60302L23.0018 10.1684C23.2556 10.3838 23.6363 10.3569 23.8647 10.0876C24.0677 9.81841 24.0423 9.41455 23.7885 9.17224ZM17.9264 11.5954V15.4724H15.4902V11.5954H17.9264Z"/>
</svg>

<svg xmlns="http://www.w3.org/2000/svg" width="24" height="24" fill="currentColor" class="icon-house-group-outline" viewBox="0 0 24 24">
  <path d="m7.698 7.377 6.7 6.03a.7.7 0 0 1 .075.916.607.607 0 0 1-.863.08l-.608-.565v5.008c0 1.212-.914 2.154-2.03 2.154h-7.31c-1.141 0-2.03-.942-2.03-2.154v-5.008l-.634.566a.607.607 0 0 1-.863-.081.7.7 0 0 1 .076-.915l6.7-6.031a.62.62 0 0 1 .787 0M2.85 18.847c0 .484.355.86.812.86H4.88v-4.092c0-.592.431-1.077 1.015-1.077h2.842c.558 0 1.015.485 1.015 1.077v4.093h1.218c.432 0 .812-.377.812-.862v-6.112L7.317 8.723l-4.466 4.011zm3.248.86h2.436v-3.876H6.1z"/>
  <path fill-rule="evenodd" d="m23.789 9.172-6.7-6.03a.62.62 0 0 0-.787 0l-6.654 5.99.947.853.429-.382v.768l1.218 1.096V8.5l4.466-4.011L21.175 8.5v6.112c0 .484-.381.861-.812.861h-1.218V11.38c0-.592-.457-1.077-1.015-1.077h-2.843c-.583 0-1.015.485-1.015 1.077v1.915l.125.113a.7.7 0 0 1 .076.915.6.6 0 0 1-.2.16v.99h-1.219l-.053-.002v1.293h7.362c1.116 0 2.03-.942 2.03-2.153V9.603l.609.565a.607.607 0 0 0 .863-.08.7.7 0 0 0-.076-.916m-5.863 2.423v3.877H15.49v-3.877z"/>
</svg>
